!!!COM:	Johannes Ockeghem
!!!CDT:	~1425-1497/02/06
!!!OPR:	Missa Cuiusvis toni (on E)
!!!ONM:	4
!!!OTL:	Sanctus
!!!AGN:	Mass; Sanctus
!!!SCT:	Ock1004.2d
!!!SCA:	Ock1004.2d
!!!voices:	4
!!!voices-OPR:	4
**kern	**kern	**kern	**kern
*staff4	*staff3	*staff2	*staff1
*Ivox	*Ivox	*Ivox	*Ivox
*I"Bassus	*I"Tenor	*I"Altus	*I"Discantus
*I'B	*I'T	*I'A	*I'D
*>[A,B,C,D,E]	*>[A,B,C,D,E]	*>[A,B,C,D,E]	*>[A,B,C,D,E]
*>A	*>A	*>A	*>A
*clefF4	*clefGv2	*clefGv2	*clefG2
*k[]	*k[]	*k[]	*k[]
*M3/1	*M3/1	*M3/1	*M3/1
*met(O)	*met(O)	*met(O)	*met(O)
!!section: Sanctus
!!!OMD: Sanctus
=1-	=1-	=1-	=1-
0.r	0.r	1.e	1.e
.	.	2d\	2f/
.	.	2e\	1g
.	.	2c\	.
=2	=2	=2	=2
0.r	0.r	1B	1g
.	.	2A/	2.a/
.	.	1c	.
.	.	.	4g/
.	.	.	2a/
.	.	2d\	[2b\
=3	=3	=3	=3
0.r	1E	1e	4b\]
.	.	.	4g/
.	.	.	2g/
.	1A	2f\	2a/
.	.	2e\	2cc\
.	2G/	2g\	2b\
.	[2A/	2f\	[2cc\
=4	=4	=4	=4
1r	4A/]	2e\	2cc\]
.	4G/	.	.
.	2E/	1e	2b\
1r	1F	.	1a
.	.	2d\	.
1E	1E	2.e\	1g
.	.	4c\	.
=5	=5	=5	=5
2D\	2F/	1B	0.r
2.E\	2.G/	.	.
.	.	2c\	.
4D\	4A/	.	.
2BB/	2B\	2d\	.
2.C/	2G/	2e\	.
.	2F/	2c\	.
4AA/	.	.	.
=6	=6	=6	=6
2GG/	2G/	2B\	0.r
2AA/	1E	2.c\	.
2C/	.	.	.
.	.	4A/	.
2D\	2F/	1A	.
1BB	1D	.	.
.	.	2G#i/	.
=7	=7	=7	=7
1AA	1E	1A	1.c
1C	2E/	2A/	.
.	2E/	2A/	2c/
1BB	1G	1B	1d
=8	=8	=8	=8
0AA	2r	0c	1.e
.	1A	.	.
.	2A/	.	2f/
1GG	1B	1d	1g
=9	=9	=9	=9
1C	2.c\	2.e\	2a/
.	.	.	1g
.	4B\	4d\	.
1E	2G/	2B\	.
.	4C/	1c	2e/
.	4G/	.	.
1D	4A/	.	2.f/
.	2F/	.	.
.	.	2B\	.
.	8E/L	.	4d/
.	8F/J	.	.
=10	=10	=10	=10
1C	2G/	1c	2e/
.	2A/	.	2f/
2r	2E/	2r	2g/
2C/	2A/	2c\	2e/
2D\	2F/	2B\	2f/
2C/	2G/	[2c\	[2e/
=11	=11	=11	=11
1AA	2A/	4c\]	2e/]
.	.	4d\	.
.	1A	2.e\	2c/
1E	.	.	1B
.	.	4d\	.
.	2G/	2B\	.
1F	1A	1d	1A
=12	=12	=12	=12
1E	1B	1e	2r
.	.	.	2g/
2D\	1d	2.f\	2a/
2BB/	.	.	2b\
.	.	4d\	.
2AA/	2c\	1e	[1cc
[2A\	2A/	.	.
=13	=13	=13	=13
2A\]	2r	2A/	2cc\]
2G\	1e	2B\	2b\
2A\	.	2c\	1a
2F\	2d\	2A/	.
1E	2e\	2B\	2g/
.	2c\	2G/	2cc\
=14	=14	=14	=14
2D\	2d\	2r	2b\
2C/	1e	2G/	1cc
1AA	.	2.A/	.
.	2c\	.	1a
.	.	4G/	.
1E	1B	2E/	.
.	.	2e\	2g#i/
=15	=15	=15	=15
2.F\	2A/	2.c\	1.a
.	1c	.	.
8E\L	.	4d\	.
8D\J	.	.	.
2C/	.	2e\	.
2D\	2B\	2f\	1b
1E	2.G/	[1el	.
.	.	.	2g/
.	4A/	.	.
=16	=16	=16	=16
0.El	2B\	0.e]	0.gl
.	2c\	.	.
.	0Bl	.	.
!!LO:LB:i:g=z
=17||	=17||	=17||	=17||
*>B	*>B	*>B	*>B
*clefF4	*clefGv2	*clefGv2	*clefG2
*k[]	*k[]	*k[]	*k[]
*M3/1	*M3/1	*M3/1	*M3/1
*met(O)	*met(O)	*met(O)	*met(O)
!!section: Pleni
!!!OMD: Pleni
0.r	0.r	1e	1.g
.	.	1.e	.
.	.	.	2e/
.	.	.	2.g/
.	.	2c\	.
.	.	.	4a/
=18	=18	=18	=18
0.r	0.r	2d\	2f/
.	.	2c\	1e
.	.	1A	.
.	.	.	2.a/
.	.	1e	.
.	.	.	4g/
.	.	.	2g/
=19	=19	=19	=19
0.r	0.r	1.d	2a/
.	.	.	2b-i\
.	.	.	4a/
.	.	.	4f/
.	.	2c\	2.a/
.	.	1B	.
.	.	.	2g/
.	.	.	4f/
=20	=20	=20	=20
1r	0.r	0A	1a
0D	.	.	1r
.	.	2r	1f
.	.	[2B\	.
=21	=21	=21	=21
1E	0.r	2B\]	1g
.	.	2G/	.
1D	.	2.A/	2f/
.	.	.	1a
.	.	4B\	.
1C	.	2.c\	.
.	.	.	2g/
.	.	4A/	.
=22	=22	=22	=22
2D\	0.r	2B\	2f/
2C/	.	1c	1e
1AA	.	.	.
.	.	2A/	2c/
1E	.	1G	2B/
.	.	.	[2e/
=23	=23	=23	=23
2C/	0.r	2A/	4e/]
.	.	.	4d/
2BB/	.	2.B\	2d/
1E	.	.	2.g/
.	.	4G/	.
.	.	2G/	.
.	.	.	4f/
2D\	.	2A/	2f/
2C/	.	[2c\	2e/
=24	=24	=24	=24
2AA/	0.r	4c\]	2a/
.	.	4B\	.
2r	.	4A/	4g/
.	.	4G/	4e/
1r	.	2d\	2f/
.	.	4c\	2e/
.	.	4A/	.
2BB/	.	1B	2d/
4D\	.	.	4f/
[4E\	.	.	[4g/
=25	=25	=25	=25
4E\]	0.r	2G/	4g/]
4C/	.	.	4e/
4BB/	.	4B\	4d/
4AA/	.	2c\	2e/
4C/	.	.	.
4D\	.	4B\	4d/
4E\	.	4G/	4B/
4AA/	.	4.A/	4.c/
1r	.	.	.
.	.	8G/	8B/
.	.	4E/	2e/
.	.	2F/	.
.	.	.	4d/
=26	=26	=26	=26
1r	2E/	2r	1e
.	2G/	1E	.
1AA	4A/	.	1r
.	2c\	.	.
.	.	2A/	.
.	4A/	.	.
2E\	2B\	2G/	1r
2F\	2A/	2A/	.
=27	=27	=27	=27
4E\	2e\	1B	0.r
4F\	.	.	.
2G\	4d\	.	.
.	4B\	.	.
2F\	4c\	2A/	.
.	4A/	.	.
4E\	4G/	2c\	.
2A\	4A/	.	.
.	2E/	4B\	.
4G\	.	2e\	.
2A\	2r	.	.
.	.	4c\	.
=28	=28	=28	=28
2G\	1r	4B\	0.r
.	.	2d\	.
4F\	.	.	.
2E\	.	2c\	.
.	2r	.	.
4D\	.	2B\	.
2C/	2E/	.	.
.	.	4A/	.
1BB	2F/	1B	.
.	2D/	.	.
=29	=29	=29	=29
1r	2E/	2r	0.r
.	2G/	2.e\	.
1BB	2.F/	.	.
.	.	4d\	.
.	.	4d\	.
.	4G/	4c\	.
1AA	1A	2.c\	.
.	.	4B\	.
=30	=30	=30	=30
1.E	2B\	2G/	0.r
.	2.G/	2.c\	.
.	4E/	4B\	.
2D\	2F/	2B\	.
2C/	2E/	2A/	.
[2E\	[2G/	2G/	.
=31	=31	=31	=31
4E\]	4G/]	2.B\	1r
4D\	4F/	.	.
2D\	2F/	.	.
.	.	4A/	.
2AA/	4A/	4F/	1r
.	4G/	4E/	.
2C/	2E/	1A	.
1BB	4F/	.	1d
.	2D/	.	.
.	.	2G#i/	.
.	4C/	.	.
=32	=32	=32	=32
1AA	1E	1A	1c
0D	2r	2B\	2.d/
.	1F	2A/	.
.	.	.	4e/
.	.	1d	1f
.	2G/	.	.
=33	=33	=33	=33
0.AAl	0.Al	0.cl	0.el
!!LO:LB:i:g=z
=34||	=34||	=34||	=34||
*>C	*>C	*>C	*>C
*clefF4	*clefGv2	*clefGv2	*clefG2
*k[]	*k[]	*k[]	*k[]
*M2/1	*M2/1	*M2/1	*M2/1
*met(C|)	*met(C|)	*met(C|)	*met(C|)
!!section: Osanna
!!!OMD: Osanna
0AA	[0A	0c	0e
=35	=35	=35	=35
1D	0A]	1d	1f
1C	.	1e	[1e
=36	=36	=36	=36
0AA	1A	1c	1e]
.	1c	[1e	1a
=37	=37	=37	=37
1E	1B	1e]	1g
1F	1A	1d	1a
=38	=38	=38	=38
0E	2G/	1r	0b
.	1G	.	.
.	.	[1e	.
.	4F/	.	.
.	4G/	.	.
=39	=39	=39	=39
0AA	1A	1e]	[0cc
.	1E	1c	.
=40	=40	=40	=40
0r	1F	1A	1cc]
.	1G	1B	1b
=41	=41	=41	=41
0AA	2.A/	0c	0a
.	4F/	.	.
.	[1E	.	.
=42	=42	=42	=42
0BB	2E/]	0B	0g
.	4D/	.	.
.	4C/	.	.
.	1D	.	.
=43	=43	=43	=43
1AA	0E	1c	1r
1C	.	1e	[1a
=44	=44	=44	=44
1D	0r	1d	2a/]
.	.	.	2f/
[1E	.	1B	[1g
=45	=45	=45	=45
2E\]	0E	0e	2g/]
2F\	.	.	2a/
1G	.	.	1b
=46	=46	=46	=46
1A	1F	1r	1a
1AA	1A	[1e	1cc
=47	=47	=47	=47
0BB	0G	2e\]	1b
.	.	2d\	.
.	.	1B	1dd
=48	=48	=48	=48
0AA	1A	1c	2cc\
.	.	.	2a/
.	1c	[1e	[1a
=49	=49	=49	=49
0E	0B	2e\]	1a]
.	.	4d\	.
.	.	4c\	.
.	.	1B	1g#i
=50	=50	=50	=50
0AA	1r	1A	[0a
.	[1A	[1c	.
=51	=51	=51	=51
1r	1A]	2c\]	0a]
.	.	2d\	.
1A	1c	[1e	.
=52	=52	=52	=52
1G	1B	0e]	0r
1E	1G	.	.
=53	=53	=53	=53
0F	1A	1c	1r
.	1F	1d	1a
=54	=54	=54	=54
1E	0G	2e\	1g
.	.	2c\	.
1C	.	2r	1e
.	.	2c\	.
=55	=55	=55	=55
0D	0r	2A/	0f
.	.	1B	.
.	.	4A/	.
.	.	4B\	.
=56	=56	=56	=56
1C	0G	1c	1e
2GG/	.	2B\	2d/
[2C/	.	2c\	[2e/
=57	=57	=57	=57
2C/]	2E/	1A	2e/]
2D\	2F/	.	2c/
1E	1G	2r	1B
.	.	2G/	.
=58	=58	=58	=58
1D	1F	1A	1r
1E	2r	2.G/	1B
.	[2E/	.	.
.	.	4E/	.
=59	=59	=59	=59
1AA	2E/]	2F/	1A
.	2C/	1A	.
1BB	1D	.	1d
.	.	2G#i/	.
=60	=60	=60	=60
1AA	1E	1A	1c
1D	1F	1B	1d
=61	=61	=61	=61
2AA/	1E	1.c	1.e
1C	.	.	.
.	1A	.	.
2D\	.	2B\	2f/
=62	=62	=62	=62
0E	2r	1.B	0g
.	1G	.	.
.	2E/	2G/	.
=63	=63	=63	=63
1D	1F	2A/	1f
.	.	2B\	.
1C	1G	[1c	1e
=64	=64	=64	=64
0AA	1A	1c]	1r
.	1c	1A	[1a
=65	=65	=65	=65
1r	0B	1E	2a/]
.	.	.	2g#i/
1E	.	1e	2g#i/
.	.	.	2f#i/
=66	=66	=66	=66
1.F	0A	2r	1.a
.	.	1c	.
2D\	.	2d\	2f/
=67	=67	=67	=67
1E	2r	2c\	1g
.	2G/	2B\	.
2D\	1F	[1d	2a/
[2BB/	.	.	[2b\
=68	=68	=68	=68
2BB/]	2G/	2d\]	2b\]
2C/	2E/	2c\	2.a/
1D	2.F/	2A/	.
.	.	.	4g/
.	.	2B\	[2f/
.	4G/	.	.
=69	=69	=69	=69
1AA	1A	1c	4f/]
.	.	.	4e/
.	.	.	2e/
2BB/	2F/	2B\	2d/
2C/	[2E/	2G/	[2e/
=70	=70	=70	=70
1AA	2E/]	1A	2e/]
.	2F/	.	2c/
2.E\	2.G/	1B	2.B/
4C/	4A/	.	4c/
=71	=71	=71	=71
2BB/	2B\	2r	2d/
1AA	2c\	1c	2e/
.	2A/	.	2f/
[2GG/	[2B\	2d\	[2g/
=72	=72	=72	=72
4GG/]	4B\]	2e\	2g/]
4EE/	4G/	.	.
2FF/	2A/	2c\	2f/
2GG/	2G/	2B\	2e/
2FF/	2A/	[2c\	[2f/
=73	=73	=73	=73
1AA	1E	2c\]	2f/]
.	.	2A/	1e
1r	1F	2.A/	.
.	.	.	2d/
.	.	4G/	.
=74	=74	=74	=74
0El	0El	0Bl	0el
!!LO:LB:i:g=z
!!LO:TX:rj:i:t=fine
=75||	=75||	=75||	=75||
*>D	*>D	*>D	*>D
*clefF4	*clefGv2	*clefGv2	*clefG2
*k[]	*k[]	*k[]	*k[]
*M2/1	*M2/1	*M2/1	*M2/1
*met(C|)	*met(C|)	*met(C|)	*met(C|)
!!section: Benedictus
!!!OMD: Benedictus
0r	0r	0e	0e
=76	=76	=76	=76
0r	0r	1.f	1.a
.	.	4e\	4g/
.	.	4d\	4f/
=77	=77	=77	=77
0r	0r	1e	1g
.	.	2A/	1a
.	.	2c\	.
=78	=78	=78	=78
0r	0r	2d\	1b
.	.	2.e\	.
.	.	.	[1cc
.	.	4d\	.
.	.	4c\	.
.	.	4B\	.
=79	=79	=79	=79
0r	0r	1A	0cc]
.	.	2F/	.
.	.	[2E/	.
=80	=80	=80	=80
0r	0r	2E/]	1b
.	.	2G/	.
.	.	2A/	2cc\
.	.	2F/	[2dd\
=81	=81	=81	=81
0r	0r	2.G/	4dd\]
.	.	.	4cc\
.	.	.	4b\
.	.	4F/	4a/
.	.	2A/	2cc\
.	.	2E/	4b\
.	.	.	4cc\
=82	=82	=82	=82
0r	0r	2G/	2b\
.	.	2A/	1a
.	.	1B	.
.	.	.	2g#i/
=83	=83	=83	=83
0r	0r	1A	2.a/
.	.	.	4b\
.	.	1r	1cc
=84	=84	=84	=84
0r	0r	1G	2b\
.	.	.	1g
.	.	1c	.
.	.	.	2a/
=85	=85	=85	=85
0r	0r	2B	2g
.	.	2c\	2.a/
.	.	2d	.
.	.	.	4g/
.	.	[2e/	2e
=86	=86	=86	=86
0r	0r	2e/]	1f
.	.	2d	.
.	.	1el	1el
!!LO:LB:i:g=z
=87||	=87||	=87||	=87||
*>E	*>E	*>E	*>E
*clefF4	*clefGv2	*clefGv2	*clefG2
*k[]	*k[]	*k[]	*k[]
*M2/1	*M2/1	*M2/1	*M2/1
*met(C|)	*met(C|)	*met(C|)	*met(C|)
!!section: Qui venit
!!!OMD: Qui venit
1E	0r	1e	0r
2F\	.	2d\	.
2G\	.	2B\	.
=88	=88	=88	=88
2C/	0r	2c\	0r
2D\	.	4B\	.
.	.	4A/	.
2E\	.	2G/	.
[2AA/	.	2A/	.
=89	=89	=89	=89
2AA/]	0r	1E	1r
1E	.	.	.
.	.	1F	1a
2D\	.	.	.
=90	=90	=90	=90
2.E\	0r	1E	2g/
.	.	.	2e/
4C/	.	.	.
2D\	.	2r	2f/
[2AA/	.	[2A/	4e/
.	.	.	4d/
=91	=91	=91	=91
2AA/]	0r	2A/]	2c/
2GG/	.	2B\	2d/
1AA	.	2c\	1A
.	.	[2A/	.
=92	=92	=92	=92
1E	0r	2A/]	1B
.	.	2G#i/	.
2r	.	1A	1A
[2F\	.	.	.
=93	=93	=93	=93
2F\]	0r	2r	1c
2E\	.	2G/	.
2F\	.	2A/	1d
2G\	.	2B\	.
=94	=94	=94	=94
2E\	0r	[0c	0e
2.A\	.	.	.
8G\L	.	.	.
8F\J	.	.	.
2E\	.	.	.
=95	=95	=95	=95
2.F\	0r	1c]	1A
4E\	.	.	.
1C	.	1c	1e
=96	=96	=96	=96
2BB/	0r	2d\	2f/
2.C/	.	1c	2e/
.	.	.	1d
4AA/	.	.	.
2BB/	.	2B\	.
=97	=97	=97	=97
2C/	0r	2A/	2c/
2GG/	.	2G/	2B/
2r	.	2A/	2c/
2C/	.	[2G/	2e/
=98	=98	=98	=98
2BB/	0r	2G/]	2d/
2C/	.	2E/	1c
2AA/	.	2F/	.
2BB/	.	2D/	2f/
=99	=99	=99	=99
2.C/	0r	2C/	2.e/
.	.	1G	.
8BB/L	.	.	8d/L
8AA/J	.	.	8c/J
2GG/	.	.	2B/
[2AA/	.	[2E/	[2c/
=100	=100	=100	=100
2AA/]	0r	4E/]	2c/]
.	.	4.F/	.
2.BB-i/	.	.	2.d/
.	.	8E/L	.
.	.	8D/	.
.	.	8C/J	.
.	.	2BB-i/	.
4GG/	.	.	4e/
2FF/	.	2C/	2f/
=101	=101	=101	=101
1C	0r	1E	4e/
.	.	.	4c/
.	.	.	1c
1GG	.	1D	.
.	.	.	2B/
=102	=102	=102	=102
2r	0r	1C	1.c
1AA	.	.	.
.	.	1r	.
2GG/	.	.	2B/
=103	=103	=103	=103
2AA/	0r	1E	1c
2C/	.	.	.
1BB	.	2F/	1d
.	.	[2G/	.
=104	=104	=104	=104
1AA	0r	4G/]	2e/
.	.	4A/	.
.	.	1A	2c/
1E	.	.	1B
.	.	2G#i/	.
=105	=105	=105	=105
2r	0r	2.A/	1A
1F	.	.	.
.	.	4B\	.
.	.	[1c	1r
2E\	.	.	.
=106	=106	=106	=106
2C/	0r	2c\]	0a
1F	.	2A/	.
.	.	2c\	.
2D\	.	2d\	.
=107	=107	=107	=107
1E	0r	2B\	2.g/
.	.	2e\	.
.	.	.	4a/
2G\	.	2r	2b\
2A\	.	2e\	[2cc\
=108	=108	=108	=108
1F	0r	2f\	2cc\]
.	.	2d\	4b\
.	.	.	4a/
2E\	.	2e\	2g/
[2F\	.	2c\	[2a/
=109	=109	=109	=109
2F\]	0r	2A/	2a/]
2D\	.	1B	2f/
1E	.	.	1g
.	.	2G/	.
=110	=110	=110	=110
2C/	0r	2A/	2e/
2D\	.	2F/	2f/
2C/	.	1E	2g/
[2AA/	.	.	2a/
=111	=111	=111	=111
2AA/]	0r	2r	1e
2r	.	2.e\	.
2.A\	.	.	2c/
.	.	4d\	.
.	.	[2e\	[2B/
4G\	.	.	.
=112	=112	=112	=112
2G\	0r	2e\]	2B/]
2F\	.	2d\	1A
1A	.	2c\	.
.	.	[2e\	[2c/
=113	=113	=113	=113
2AA/	0r	4e\]	2c/]
.	.	4A/	.
2GG/	.	8B/L	2d/
.	.	8A/	.
.	.	8G/	.
.	.	8F/J	.
2.C/	.	2E/	2.e/
.	.	[2A/	.
4AA/	.	.	4c/
=114	=114	=114	=114
2C/	0r	4A/]	2e/
.	.	4E/	.
2D\	.	2A/	2f/
2E\	.	2G/	2g/
2AA/	.	2A/	[2e/
=115	=115	=115	=115
2E\	0r	2c\	2e/]
2F\	.	2A/	1a
1E	.	1B	.
.	.	.	2g#i/
=116	=116	=116	=116
0AAl	0r	0Al	0al
!!LO:TX:i:Y=40:rj:t=Osanna ut supra
=||	=||	=||	=||
*-	*-	*-	*-
!!!RDF**kern: l=long note in original notation
!!!RDF**kern: i=editorial accidental
!!!RDF**kern: V=start of tuplet marker
!!!RDF**kern: Z=end of tuplet marker
!!!ENC:	Jesse Rodin 8-24-2012
!!!END:	2012/08/24/
!!!EED:	Jesse Rodin
!!!EEV:	2012/08/28/
!!!ONB:	Translated from MusicXML and edited on 2012/08/28/ by Craig Sapp
!!muse2ps: T^@{OPR}^u^@{ONM}{. }@{OTL}^C^@{COM}^i2I150v85,85,85,150Q16
